Sources/FrostedUI/Resources/Icons.xcassets/playCircle24.imageset/play-circle-24.svg

<svg width="24" height="24" viewBox="0 0 24 24" fill="none" xmlns="http://www.w3.org/2000/svg" data-fui-icon="true">
  <path
    d="M12 1.875C17.5919 1.875 22.125 6.40812 22.125 12C22.125 17.5919 17.5919 22.125 12 22.125C6.40812 22.125 1.875 17.5919 1.875 12C1.875 6.40812 6.40812 1.875 12 1.875ZM12 3.375C7.23654 3.375 3.375 7.23654 3.375 12C3.375 16.7635 7.23654 20.625 12 20.625C16.7635 20.625 20.625 16.7635 20.625 12C20.625 7.23654 16.7635 3.375 12 3.375ZM8.25 9.25488C8.25031 7.68434 9.97762 6.7273 11.3096 7.55957L15.7012 10.3037C16.9545 11.087 16.9545 12.913 15.7012 13.6963L11.3096 16.4404C9.97762 17.2727 8.25031 16.3157 8.25 14.7451V9.25488ZM10.5146 8.83105C10.1818 8.6234 9.75031 8.86256 9.75 9.25488V14.7451C9.75031 15.1374 10.1818 15.3766 10.5146 15.1689L14.9062 12.4238C15.2196 12.228 15.2196 11.772 14.9062 11.5762L10.5146 8.83105Z"
    fill="currentColor"
  />
</svg>

<svg xmlns="http://www.w3.org/2000/svg" width="24" height="24" fill="none" data-fui-icon="true" viewBox="0 0 24 24"><path fill="currentColor" d="M12 1.875c5.592 0 10.125 4.533 10.125 10.125S17.592 22.125 12 22.125 1.875 17.592 1.875 12 6.408 1.875 12 1.875m0 1.5a8.625 8.625 0 1 0 0 17.25 8.625 8.625 0 0 0 0-17.25m-3.75 5.88c0-1.57 1.728-2.528 3.06-1.695l4.391 2.744a2 2 0 0 1 0 3.392L11.31 16.44c-1.332.833-3.06-.124-3.06-1.695zm2.265-.424a.5.5 0 0 0-.765.424v5.49a.5.5 0 0 0 .765.424l4.391-2.745a.5.5 0 0 0 0-.848z"/></svg>
